X:600
T:Pip Murphy's
R:jig
Z:Transcribed by Dave Marshall
M:6/8
K:G
|: G3 g2e | dBG AGE | DGG FGA | ~B3 AGE |
G3 g2e | dBG AGE | DGG FGA | BGF G3 :|
e3 gfe | eBe gfe | eBe gfe | fdB ~B3 |
e3 gfg | agf g3 | ~B3 GAB | AGE ~E3 |
e3 gfe | bef gfe | bef gfe | fdB ~B3 |
e3 gfg | agf g3 | ~B3 GAB | AGE DEF |
